pp/printer_print.svg

<svg viewBox="0 0 20 20" fill="none" xmlns="http://www.w3.org/2000/svg" height="1em" width="1em">
  <rect opacity="0.8" x="2" y="7.5" width="18" height="11" rx="3" fill="currentColor"/>
  <path d="M4.5 2C4.5 1.44772 4.94772 1 5.5 1H14.5C15.0523 1 15.5 1.44772 15.5 2V6.5H4.5V2Z" fill="white"/>
  <path d="M5 6.5H4V2.1C4 1.23445 4.61204 0.5 5.41667 0.5H14.5833C15.388 0.5 16 1.23445 16 2.1V6.5H15V2.1C15 1.75052 14.7912 1.5 14.5833 1.5H5.41667C5.20877 1.5 5 1.75052 5 2.1V6.5Z" fill="black"/>
  <path fill-rule="evenodd" clip-rule="evenodd" d="M16 6H4C2.34315 6 1 7.34315 1 9V14C1 15.6569 2.34315 17 4 17H16C17.6569 17 19 15.6569 19 14V9C19 7.34315 17.6569 6 16 6ZM2 9C2 7.89543 2.89543 7 4 7H16C17.1046 7 18 7.89543 18 9V14C18 15.1046 17.1046 16 16 16H4C2.89543 16 2 15.1046 2 14V9Z" fill="black"/>
  <path d="M15.5 17.5313C15.5 18.0835 15.0523 18.5312 14.5 18.5312H5.5C4.94771 18.5312 4.5 18.0835 4.5 17.5312V11.9687L15.5 11.9688V17.5313Z" fill="white"/>
  <path d="M15 11.9688H16V17.2188C16 18.1894 15.412 19.0312 14.5833 19.0312H5.41667C4.58798 19.0312 4 18.1894 4 17.2188V11.9687H5V17.2188C5 17.6979 5.23283 18.0312 5.41667 18.0312H14.5833C14.7672 18.0312 15 17.6979 15 17.2188V11.9688Z" fill="black"/>
  <path d="M13.5 15.5C13.7761 15.5 14 15.7239 14 16C14 16.2761 13.7761 16.5 13.5 16.5H6.5C6.22386 16.5 6 16.2761 6 16C6 15.7239 6.22386 15.5 6.5 15.5H13.5Z" fill="black"/>
  <path d="M13.5 13.5C13.7761 13.5 14 13.7239 14 14C14 14.2761 13.7761 14.5 13.5 14.5L6.5 14.5C6.22386 14.5 6 14.2761 6 14C6 13.7239 6.22386 13.5 6.5 13.5H13.5Z" fill="black"/>
</svg>

<svg viewBox="0 0 20 20" fill="none" xmlns="http://www.w3.org/2000/svg" height="1em" width="1em">
  <rect opacity=".8" x="2" y="7.5" width="18" height="11" rx="3" fill="currentColor"/>
  <path d="M4.5 2a1 1 0 0 1 1-1h9a1 1 0 0 1 1 1v4.5h-11V2Z" fill="#fff"/>
  <path d="M5 6.5H4V2.1C4 1.234 4.612.5 5.417.5h9.166C15.388.5 16 1.234 16 2.1v4.4h-1V2.1c0-.35-.209-.6-.417-.6H5.417c-.208 0-.417.25-.417.6v4.4Z" fill="#000"/>
  <path fill-rule="evenodd" clip-rule="evenodd" d="M16 6H4a3 3 0 0 0-3 3v5a3 3 0 0 0 3 3h12a3 3 0 0 0 3-3V9a3 3 0 0 0-3-3ZM2 9a2 2 0 0 1 2-2h12a2 2 0 0 1 2 2v5a2 2 0 0 1-2 2H4a2 2 0 0 1-2-2V9Z" fill="#000"/>
  <path d="M15.5 17.531a1 1 0 0 1-1 1h-9a1 1 0 0 1-1-1V11.97h11v5.562Z" fill="#fff"/>
  <path d="M15 11.969h1v5.25c0 .97-.588 1.812-1.417 1.812H5.417C4.588 19.031 4 18.19 4 17.22v-5.25h1v5.25c0 .479.233.812.417.812h9.166c.184 0 .417-.333.417-.812v-5.25Z" fill="#000"/>
  <path d="M13.5 15.5a.5.5 0 0 1 0 1h-7a.5.5 0 0 1 0-1h7Zm0-2a.5.5 0 0 1 0 1h-7a.5.5 0 0 1 0-1h7Z" fill="#000"/>
</svg>
